svg/led-strip.svg

<?xml version="1.0" encoding="UTF-8"?>
<!DOCTYPE svg PUBLIC "-//W3C//DTD SVG 1.1//EN" "http://www.w3.org/Graphics/SVG/1.1/DTD/svg11.dtd">
<svg xmlns="http://www.w3.org/2000/svg" xmlns:xlink="http://www.w3.org/1999/xlink" version="1.1"  width="24" height="24" viewBox="0 0 24 24">
    <path fill="#000000" d="M 2.157588,2 0.99999996,6.3457031 20.690651,11.652344 21.848239,7.3046875 Z M 3.9677761,3.5703125 A 1.2430476,1.25 0 0 1 4.3018452,3.6132815 1.2430476,1.25 0 0 1 5.1797475,5.1425784 1.2430476,1.25 0 0 1 3.6570142,6.0273441 1.2430476,1.25 0 0 1 2.7791118,4.4960941 1.2430476,1.25 0 0 1 3.9677761,3.5703125 Z M 7.6910922,4.5722656 A 1.2430476,1.25 0 0 1 8.023219,4.6152346 1.2430476,1.25 0 0 1 8.9030636,6.1464846 1.2430476,1.25 0 0 1 7.3803303,7.0292971 1.2430476,1.25 0 0 1 6.5004856,5.5 1.2430476,1.25 0 0 1 7.6910922,4.5722656 Z m 3.7213738,1.0039063 a 1.2430476,1.25 0 0 1 0.332126,0.042969 1.2430476,1.25 0 0 1 0.879845,1.5292969 1.2430476,1.25 0 0 1 -1.522733,0.8847656 1.2430476,1.25 0 0 1 -0.877903,-1.53125 1.2430476,1.25 0 0 1 1.188665,-0.9257815 z m 3.721373,1.0019531 a 1.2430476,1.25 0 0 1 0.33407,0.042969 1.2430476,1.25 0 0 1 0.877902,1.53125 A 1.2430476,1.25 0 0 1 14.82502,9.0351562 1.2430476,1.25 0 0 1 13.945176,7.5058594 1.2430476,1.25 0 0 1 15.133839,6.578125 Z m 3.723317,1.0039062 A 1.2430476,1.25 0 0 1 19.189282,7.625 1.2430476,1.25 0 0 1 20.069127,9.1542969 1.2430476,1.25 0 0 1 18.546394,10.039062 1.2430476,1.25 0 0 1 17.666549,8.5078125 1.2430476,1.25 0 0 1 18.857156,7.5820312 Z m -7.460228,2.5664068 -6.2404876,1.697265 7.4446896,2.005859 6.24243,-1.697265 z M 3.3093493,12.347656 2.1517613,16.693359 21.842412,22 23,17.654297 Z m 1.8101882,1.570313 a 1.2430476,1.25 0 0 1 0.3340689,0.04297 1.2430476,1.25 0 0 1 0.8779025,1.53125 A 1.2430476,1.25 0 0 1 4.8107178,16.375 1.2430476,1.25 0 0 1 3.9308731,14.84375 1.2430476,1.25 0 0 1 5.1195375,13.917969 Z m 3.7233161,1.003906 a 1.2430476,1.25 0 0 1 0.3321268,0.04102 1.2430476,1.25 0 0 1 0.8798436,1.53125 A 1.2430476,1.25 0 0 1 8.5320917,17.37891 1.2430476,1.25 0 0 1 7.652247,15.84766 1.2430476,1.25 0 0 1 8.8428536,14.921879 Z m 3.7213734,1.001953 a 1.2430476,1.25 0 0 1 0.334069,0.04297 1.2430476,1.25 0 0 1 0.877903,1.53125 1.2430476,1.25 0 0 1 -1.522734,0.882812 1.2430476,1.25 0 0 1 -0.877903,-1.53125 1.2430476,1.25 0 0 1 1.188665,-0.925781 z m 3.723316,1.001953 a 1.2430476,1.25 0 0 1 0.332127,0.04297 1.2430476,1.25 0 0 1 0.879844,1.53125 1.2430476,1.25 0 0 1 -1.522733,0.884766 1.2430476,1.25 0 0 1 -0.879844,-1.53125 1.2430476,1.25 0 0 1 1.190606,-0.927735 z m 3.721374,1.003907 a 1.2430476,1.25 0 0 1 0.332126,0.04297 1.2430476,1.25 0 0 1 0.879845,1.53125 1.2430476,1.25 0 0 1 -1.522733,0.882813 1.2430476,1.25 0 0 1 -0.877902,-1.53125 1.2430476,1.25 0 0 1 1.188664,-0.925781 z" />
</svg>

<?xml version="1.0" encoding="UTF-8"?>
<!DOCTYPE svg PUBLIC "-//W3C//DTD SVG 1.1//EN" "http://www.w3.org/Graphics/SVG/1.1/DTD/svg11.dtd">
<svg xmlns="http://www.w3.org/2000/svg" xmlns:xlink="http://www.w3.org/1999/xlink" version="1.1"  width="24" height="24" viewBox="0 0 24 24">
<path d="m2.1576 2-1.1576 4.3457 19.691 5.3066 1.1576-4.3477zm1.8102 1.5703a1.243 1.25 0 0 1 0.33407 0.042969 1.243 1.25 0 0 1 0.8779 1.5293 1.243 1.25 0 0 1 -1.5227 0.88477 1.243 1.25 0 0 1 -0.8779 -1.5312 1.243 1.25 0 0 1 1.1887 -0.92578zm3.7233 1.002a1.243 1.25 0 0 1 0.33213 0.042969 1.243 1.25 0 0 1 0.87984 1.5312 1.243 1.25 0 0 1 -1.5227 0.88281 1.243 1.25 0 0 1 -0.87984 -1.5293 1.243 1.25 0 0 1 1.1906 -0.92773zm3.7214 1.0039a1.243 1.25 0 0 1 0.33213 0.042969 1.243 1.25 0 0 1 0.87984 1.5293 1.243 1.25 0 0 1 -1.5227 0.88477 1.243 1.25 0 0 1 -0.8779 -1.5312 1.243 1.25 0 0 1 1.1887 -0.92578zm3.7214 1.002a1.243 1.25 0 0 1 0.33407 0.042969 1.243 1.25 0 0 1 0.8779 1.5312 1.243 1.25 0 0 1 -1.5208 0.88281 1.243 1.25 0 0 1 -0.87984 -1.5293 1.243 1.25 0 0 1 1.1887 -0.92773zm3.7233 1.0039a1.243 1.25 0 0 1 0.33213 0.042969 1.243 1.25 0 0 1 0.87984 1.5293 1.243 1.25 0 0 1 -1.5227 0.88477 1.243 1.25 0 0 1 -0.87984 -1.5312 1.243 1.25 0 0 1 1.1906 -0.92578zm-7.4602 2.5664-6.2405 1.6973 7.4447 2.0059 6.2424-1.6973zm-8.0876 2.1992-1.1576 4.3457 19.691 5.3066 1.1576-4.3457zm1.8102 1.5703a1.243 1.25 0 0 1 0.33407 0.04297 1.243 1.25 0 0 1 0.8779 1.5312 1.243 1.25 0 0 1 -1.5208 0.88281 1.243 1.25 0 0 1 -0.87984 -1.5312 1.243 1.25 0 0 1 1.1887 -0.92578zm3.7233 1.0039a1.243 1.25 0 0 1 0.33213 0.04102 1.243 1.25 0 0 1 0.87984 1.5312 1.243 1.25 0 0 1 -1.5227 0.88476 1.243 1.25 0 0 1 -0.87984 -1.5312 1.243 1.25 0 0 1 1.1906 -0.92578zm3.7214 1.002a1.243 1.25 0 0 1 0.33407 0.04297 1.243 1.25 0 0 1 0.8779 1.5312 1.243 1.25 0 0 1 -1.5227 0.88281 1.243 1.25 0 0 1 -0.8779 -1.5312 1.243 1.25 0 0 1 1.1887 -0.92578zm3.7233 1.002a1.243 1.25 0 0 1 0.33213 0.04297 1.243 1.25 0 0 1 0.87984 1.5312 1.243 1.25 0 0 1 -1.5227 0.88477 1.243 1.25 0 0 1 -0.87984 -1.5312 1.243 1.25 0 0 1 1.1906 -0.92774zm3.7214 1.0039a1.243 1.25 0 0 1 0.33213 0.04297 1.243 1.25 0 0 1 0.87984 1.5312 1.243 1.25 0 0 1 -1.5227 0.88281 1.243 1.25 0 0 1 -0.8779 -1.5312 1.243 1.25 0 0 1 1.1887 -0.92578z"/>
</svg>
